public/icons/atom.svg

<svg width="42" height="43" viewBox="0 0 42 43" fill="none" xmlns="http://www.w3.org/2000/svg">
<g clip-path="url(#clip0_88_1615)">
<path d="M21 42.0707C32.598 42.0707 42 32.6687 42 21.0707C42 9.47276 32.598 0.0707397 21 0.0707397C9.40202 0.0707397 0 9.47276 0 21.0707C0 32.6687 9.40202 42.0707 21 42.0707Z" fill="#2E3148"/>
<path d="M21.0001 33.2559C27.7299 33.2559 33.1854 27.8004 33.1854 21.0707C33.1854 14.341 27.7299 8.88553 21.0001 8.88553C14.2704 8.88553 8.81494 14.341 8.81494 21.0707C8.81494 27.8004 14.2704 33.2559 21.0001 33.2559Z" fill="#1B1E36"/>
<path d="M21.0434 2.74985C18.7766 2.74985 16.9385 10.9718 16.9385 21.1141C16.9385 31.2564 18.7766 39.4783 21.0434 39.4783C23.3102 39.4783 25.1483 31.2564 25.1483 21.1141C25.1483 10.9718 23.3102 2.74985 21.0434 2.74985ZM21.3268 38.4419C21.0676 38.7877 20.8084 38.5283 20.8084 38.5283C19.7644 37.3187 19.2424 35.0715 19.2424 35.0715C17.4164 29.1951 17.8511 16.5778 17.8511 16.5778C18.7092 6.56093 20.2703 4.19465 20.8015 3.66931C20.8557 3.61569 20.9271 3.58293 21.0032 3.57678C21.0792 3.57064 21.1549 3.59151 21.2171 3.63571C21.9879 4.18188 22.6343 6.46601 22.6343 6.46601C24.5433 13.5524 24.3705 20.2067 24.3705 20.2067C24.5433 25.9968 23.4139 32.4783 23.4139 32.4783C22.5445 37.404 21.3268 38.4419 21.3268 38.4419Z" fill="#6F7390"/>
<path d="M36.9722 11.9751C35.8436 10.0081 27.7979 12.5056 18.9962 17.5527C10.1945 22.5997 3.98593 28.286 5.11371 30.2521C6.24149 32.2182 14.288 29.7216 23.0897 24.6745C31.8914 19.6275 38.1 13.9412 36.9722 11.9751ZM6.15497 29.9823C5.72288 29.9279 5.82049 29.5727 5.82049 29.5727C6.35053 28.0656 8.03725 26.4945 8.03725 26.4945C12.2277 21.986 23.3889 16.0843 23.3889 16.0843C32.5036 11.8437 35.3347 12.0226 36.0529 12.2203C36.1266 12.2409 36.1907 12.2869 36.2338 12.3502C36.2768 12.4135 36.2961 12.49 36.2881 12.5661C36.2018 13.5069 34.5381 15.2037 34.5381 15.2037C29.3449 20.388 23.4865 23.5501 23.4865 23.5501C18.5502 26.5825 12.3661 28.8268 12.3661 28.8268C7.66059 30.5224 6.15514 29.9823 6.15514 29.9823H6.15497Z" fill="#6F7390"/>
<path d="M36.9322 30.3176C38.0695 28.3559 31.8766 22.6435 23.1058 17.5585C14.335 12.4735 6.29034 9.9451 5.15398 11.9102C4.01763 13.8753 10.2096 19.5843 18.9854 24.6693C27.7612 29.7543 35.7958 32.2829 36.9322 30.3176ZM5.90763 12.6682C5.73963 12.2699 6.09428 12.174 6.09428 12.174C7.66441 11.8774 9.86991 12.5531 9.86991 12.5531C15.87 13.9195 26.5691 20.6213 26.5691 20.6213C34.8067 26.3856 36.07 28.9246 36.2593 29.6453C36.2786 29.7192 36.2711 29.7976 36.2382 29.8665C36.2053 29.9354 36.1492 29.9906 36.0796 30.0221C35.2206 30.4154 32.92 29.8294 32.92 29.8294C25.8292 27.9282 20.1584 24.4447 20.1584 24.4447C15.0631 21.6965 10.0248 17.468 10.0248 17.468C6.19642 14.2446 5.90881 12.6726 5.90881 12.6726L5.90763 12.6682Z" fill="#6F7390"/>
<path d="M20.9998 23.2312C22.193 23.2312 23.1603 22.264 23.1603 21.0708C23.1603 19.8776 22.193 18.9103 20.9998 18.9103C19.8066 18.9103 18.8394 19.8776 18.8394 21.0708C18.8394 22.264 19.8066 23.2312 20.9998 23.2312Z" fill="#B7B9C8"/>
<path d="M29.8581 14.0707C30.5502 14.0707 31.1112 13.4903 31.1112 12.7744C31.1112 12.0585 30.5502 11.4781 29.8581 11.4781C29.166 11.4781 28.605 12.0585 28.605 12.7744C28.605 13.4903 29.166 14.0707 29.8581 14.0707Z" fill="#B7B9C8"/>
<path d="M9.29022 18.4782C9.9823 18.4782 10.5433 17.8978 10.5433 17.1819C10.5433 16.466 9.9823 15.8856 9.29022 15.8856C8.59815 15.8856 8.03711 16.466 8.03711 17.1819C8.03711 17.8978 8.59815 18.4782 9.29022 18.4782Z" fill="#B7B9C8"/>
<path d="M18.4504 34.3794C19.1425 34.3794 19.7035 33.799 19.7035 33.0831C19.7035 32.3672 19.1425 31.7868 18.4504 31.7868C17.7583 31.7868 17.1973 32.3672 17.1973 33.0831C17.1973 33.799 17.7583 34.3794 18.4504 34.3794Z" fill="#B7B9C8"/>
</g>
<defs>
<clipPath id="clip0_88_1615">
<rect width="42" height="42" fill="white" transform="translate(0 0.0707397)"/>
</clipPath>
</defs>
</svg>

<svg width="42" height="43" fill="none" xmlns="http://www.w3.org/2000/svg"><g clip-path="url(#a)"><path d="M21 42.07c11.598 0 21-9.401 21-21 0-11.597-9.402-21-21-21s-21 9.403-21 21c0 11.599 9.402 21 21 21Z" fill="#2E3148"/><path d="M21 33.256c6.73 0 12.185-5.456 12.185-12.185 0-6.73-5.455-12.185-12.185-12.185S8.815 14.34 8.815 21.07 14.27 33.256 21 33.256Z" fill="#1B1E36"/><path d="M21.043 2.75c-2.266 0-4.104 8.222-4.104 18.364 0 10.142 1.838 18.364 4.104 18.364 2.267 0 4.105-8.222 4.105-18.364 0-10.142-1.838-18.364-4.105-18.364Zm.284 35.692c-.26.346-.519.086-.519.086-1.044-1.21-1.566-3.456-1.566-3.456-1.826-5.877-1.39-18.494-1.39-18.494.857-10.017 2.418-12.383 2.95-12.909a.324.324 0 0 1 .415-.033c.77.546 1.417 2.83 1.417 2.83 1.91 7.086 1.736 13.74 1.736 13.74.173 5.79-.956 12.272-.956 12.272-.87 4.926-2.087 5.964-2.087 5.964Z" fill="#6F7390"/><path d="M36.972 11.975c-1.128-1.967-9.174.53-17.976 5.578-8.801 5.047-15.01 10.733-13.882 12.7 1.127 1.965 9.174-.531 17.976-5.579 8.801-5.046 15.01-10.733 13.882-12.699ZM6.155 29.982c-.432-.054-.335-.41-.335-.41.53-1.506 2.217-3.078 2.217-3.078 4.19-4.508 15.352-10.41 15.352-10.41 9.115-4.24 11.946-4.061 12.664-3.864a.325.325 0 0 1 .235.346c-.086.94-1.75 2.638-1.75 2.638-5.193 5.184-11.051 8.346-11.051 8.346-4.937 3.032-11.12 5.277-11.12 5.277-4.706 1.695-6.212 1.155-6.212 1.155Z" fill="#6F7390"/><path d="M36.932 30.318c1.137-1.962-5.055-7.675-13.826-12.76S6.29 9.945 5.154 11.91c-1.136 1.965 5.056 7.674 13.831 12.76 8.776 5.084 16.81 7.613 17.947 5.648ZM5.908 12.668c-.168-.398.186-.494.186-.494 1.57-.297 3.776.38 3.776.38 6 1.365 16.7 8.067 16.7 8.067 8.237 5.765 9.5 8.304 9.69 9.024a.324.324 0 0 1-.18.377c-.86.393-3.16-.193-3.16-.193-7.09-1.9-12.762-5.384-12.762-5.384-5.095-2.748-10.133-6.977-10.133-6.977-3.829-3.223-4.116-4.795-4.116-4.795l-.001-.005Z" fill="#6F7390"/><path d="M21 23.231a2.16 2.16 0 1 0 0-4.32 2.16 2.16 0 0 0 0 4.32ZM29.858 14.07c.692 0 1.253-.58 1.253-1.296 0-.715-.56-1.296-1.253-1.296-.692 0-1.253.58-1.253 1.296 0 .716.561 1.297 1.253 1.297ZM9.29 18.478c.692 0 1.253-.58 1.253-1.296 0-.716-.56-1.296-1.253-1.296-.692 0-1.253.58-1.253 1.296 0 .716.561 1.296 1.253 1.296ZM18.45 34.38c.692 0 1.253-.581 1.253-1.297s-.56-1.296-1.253-1.296c-.692 0-1.253.58-1.253 1.296 0 .716.561 1.296 1.253 1.296Z" fill="#B7B9C8"/></g><defs><clipPath id="a"><path fill="#fff" transform="translate(0 .07)" d="M0 0h42v42H0z"/></clipPath></defs></svg>
